src/main/resources/icons/AllIcons/nodes/linux.svg

<svg width="16" height="16" viewBox="0 0 16 16" fill="none" xmlns="http://www.w3.org/2000/svg">
<path fill-rule="evenodd" clip-rule="evenodd" d="M6.39008 1.9346C6.26419 2.18647 6.18131 2.49614 6.1741 2.87601C6.1435 4.48725 6.24332 4.23805 6.18174 4.9774C6.15343 5.31727 6.11575 5.44346 5.94488 5.85339C5.75896 6.29944 5.55962 6.55338 5.28301 6.94418C4.93988 7.42892 4.46694 8.09303 4.20802 8.62535C4.06001 8.92741 3.93647 9.38794 3.89044 9.69356C3.85966 9.89785 3.85609 10.162 3.86298 10.4095C3.6805 10.57 3.58677 10.8402 3.39927 11.0463C3.27832 11.1789 3.04455 11.2219 2.78546 11.2727C2.56316 11.3158 2.32796 11.4034 2.24574 11.5374C2.23656 11.5523 2.22826 11.5678 2.22064 11.5838C2.03343 11.9486 2.26256 12.5748 2.15081 13.038C2.10349 13.2349 2.02269 13.4202 2.02125 13.5901C2.02075 13.6776 2.04037 13.7705 2.10061 13.876C2.16658 13.9921 2.31143 14.0749 2.51748 14.147C2.70966 14.2142 2.9592 14.2733 3.24938 14.3425L3.34977 14.3662C3.48028 14.3976 3.6103 14.4291 3.74177 14.4557C3.82734 14.4736 3.87707 14.4823 3.91959 14.49C4.1046 14.5234 4.17487 14.5365 4.66822 14.7315C4.78726 14.7784 4.9192 14.8287 5.05879 14.8718C5.33463 14.9584 5.64632 15.0213 5.93411 14.9686C6.07992 14.942 6.2176 14.8858 6.33997 14.7891C6.46666 14.6889 6.58856 14.5539 6.67509 14.417C6.69822 14.3805 6.71962 14.3427 6.73834 14.3038C6.75475 14.2709 6.76932 14.2373 6.78148 14.203C6.79308 14.1717 6.80275 14.1392 6.80979 14.1066C6.92587 14.048 7.2131 13.9596 7.89699 13.9529C8.92767 13.9428 9.61416 14.3192 9.61416 14.3192L9.61466 14.3115C9.62326 14.3609 9.63378 14.4068 9.64717 14.4508C9.66677 14.5152 9.69306 14.5742 9.72843 14.6313C9.76429 14.6879 9.80875 14.7416 9.86516 14.7944C9.92635 14.8515 9.99997 14.9042 10.0841 14.9492C10.1625 14.9908 10.2505 15.0257 10.347 15.0513C10.435 15.0746 10.5301 15.09 10.631 15.0949C10.7252 15.0997 10.8236 15.0954 10.9264 15.0804C11.1 15.0552 11.2338 14.9996 11.349 14.9275C11.4614 14.8573 11.5532 14.7731 11.6469 14.687L11.6497 14.6846V14.6846C11.7114 14.628 11.774 14.5704 11.8433 14.5176C11.8897 14.4823 11.9323 14.4494 11.9729 14.4175C12.0331 14.3705 12.0666 14.3439 12.1005 14.3168C12.2024 14.236 12.3075 14.1518 12.4127 14.0725C12.5217 13.9907 12.6374 13.9075 12.7631 13.8262C12.8583 13.7643 12.9653 13.6941 13.0681 13.6259C13.1743 13.5553 13.2851 13.4812 13.3898 13.4086C13.5768 13.2801 13.8349 13.1208 13.9327 12.9138C13.9653 12.8498 13.9829 12.7812 13.9781 12.7074C13.9628 12.4708 13.686 12.2574 13.4413 12.0455C13.3222 11.9419 13.2022 11.8393 13.1396 11.7343C13.089 11.6497 13.0278 11.5219 13.0106 11.429C12.9622 11.1714 12.9633 10.979 12.8428 10.8088C12.7322 10.6526 12.6355 10.6077 12.465 10.5882C12.4395 10.5853 12.4155 10.5816 12.3922 10.5778C12.5029 10.1652 12.5397 9.90224 12.5074 9.55752C12.3942 8.34987 11.6301 7.46563 11.2147 6.86698C10.9435 6.4762 10.6292 6.07397 10.4936 5.80614C10.358 5.5383 10.2571 5.1657 10.191 4.94988C10.1259 4.73729 10.0915 4.23162 10.0829 3.41149C10.1135 2.15491 9.72918 1.57477 9.26404 1.21284C8.79889 0.850918 8.11623 0.856724 7.87004 0.878495V0.878495V0.878495V0.878489C7.66364 0.896704 6.79536 1.10751 6.39011 1.93461L6.39008 1.9346Z" fill="#191919"/>
<path fill-rule="evenodd" clip-rule="evenodd" d="M3.29614 11.2799C3.05154 11.3989 2.48829 11.3965 2.35165 11.6334C2.20165 11.894 2.29863 12.1827 2.30006 12.5154C2.30056 12.7509 2.29671 13.0129 2.19879 13.2919C2.11852 13.5216 2.09129 13.6029 2.20642 13.805C2.32155 14.0076 2.82126 14.1048 3.49725 14.2682C4.17373 14.4312 3.95827 14.3108 4.71548 14.6101C5.18461 14.7957 5.84675 15.0235 6.27575 14.6845C6.43389 14.5593 6.69329 14.276 6.70906 13.9999C6.71814 13.8422 6.7038 13.6739 6.66655 13.5719C6.54281 13.2315 6.29534 13.086 6.06031 12.7301C5.62986 12.0691 5.17267 11.4424 4.8072 10.8921C4.54923 10.5029 4.34189 10.4086 4.16656 10.4396C3.62767 10.5358 3.80157 11.0343 3.29613 11.2799V11.2799V11.2799V11.2799H3.29614Z" fill="#FCC624"/>
<path fill-rule="evenodd" clip-rule="evenodd" d="M10.1506 10.7172C9.91325 10.8869 9.96466 11.3956 9.95074 11.6636C9.9296 12.0736 9.9267 12.5307 9.91278 12.7126C9.88971 13.0136 9.66436 13.6935 9.69176 14.0145C9.71867 14.335 9.74172 14.5227 9.93873 14.7066C10.1362 14.8904 10.4836 15.0275 10.9127 14.9648C11.3418 14.9021 11.5042 14.6321 11.7824 14.4211C12.0601 14.21 12.346 13.9596 12.7131 13.7213C13.0802 13.4825 13.6712 13.0915 13.7563 12.9859C13.8413 12.8799 13.899 12.7885 13.8375 12.6494C13.7764 12.5103 13.5622 12.2953 13.3281 12.0998C12.7179 11.5892 12.9814 11.1145 12.7266 10.8636C12.6488 10.7788 12.5911 10.7321 12.5008 10.7135C12.0138 10.6131 11.88 10.8067 11.5941 10.7783C11.2857 10.7476 11.4016 10.8162 10.7687 10.7307C10.5508 10.7057 10.301 10.6183 10.1506 10.7172V10.7172V10.7172Z" fill="#FCC624"/>
<path fill-rule="evenodd" clip-rule="evenodd" d="M6.17142 6.82106C5.95386 7.30259 5.96453 7.13897 5.81832 7.64229C5.61528 7.82877 5.39268 8.3298 5.24613 8.76107C5.05897 9.38787 4.91836 10.0323 5.09314 10.782C5.16247 10.8582 5.21875 10.9303 5.28189 10.9908C5.38219 11.087 5.49018 11.1649 5.62211 11.2664C6.08899 11.6255 6.41619 11.8152 6.48057 12.0487C6.56628 12.3596 6.37417 12.5652 6.13463 12.6916C6.30977 12.869 6.86888 13.2324 7.88841 13.1869C8.78629 13.147 9.34934 12.803 9.82999 12.2096C9.83306 12.073 9.84783 11.8445 9.85451 11.5979C9.86089 11.3623 9.86223 11.1264 9.89786 10.9434C9.90624 10.9004 9.92228 10.8596 9.93665 10.8237C9.99529 10.6773 10.1531 10.5776 10.3041 10.5704C10.3835 10.5666 10.4669 10.5608 10.5466 10.5775C10.6684 9.61399 10.5719 8.94869 10.0908 7.92822C10.0535 7.85665 9.87528 7.55312 9.76886 7.46745C9.68571 7.05567 9.67474 7.07587 9.50838 6.69891C9.25606 6.12722 9.16463 5.46642 9.0877 5.0781C9.03514 5.10566 8.94341 5.14435 8.80341 5.25413C8.70165 5.33441 8.5134 5.50124 8.36911 5.60231C8.27489 5.66833 8.17178 5.72541 8.07033 5.77011C7.92434 5.83446 7.78182 5.87317 7.6744 5.87603C7.28937 5.89663 7.10621 5.80011 6.93065 5.61494C6.85702 5.53727 6.80124 5.45218 6.70835 5.34835C6.6672 5.30235 6.61025 5.24124 6.55219 5.19925C6.55061 5.25029 6.38897 6.33953 6.17142 6.82106ZM7.89944 3.94504C7.8875 3.83767 7.88415 3.64134 7.95773 3.39423C8.07144 3.01509 8.48235 2.76122 8.83018 2.94014C9.17801 3.11907 9.24227 3.58361 9.15889 3.84542C9.10765 4.00633 8.98604 4.19456 8.89419 4.31257C8.823 4.28307 8.73509 4.25067 8.62568 4.21247C8.68875 4.17571 8.74513 4.11768 8.7867 4.04079C8.90184 3.82849 8.86075 3.55236 8.69592 3.42373C8.5306 3.29509 8.30365 3.36328 8.18898 3.57558C8.10872 3.72356 8.10441 3.90297 8.16509 4.04128C8.06714 4.00308 7.98163 3.97019 7.89944 3.94505V3.94505V3.94505V3.94504V3.94504ZM6.62375 3.03395C6.94961 2.91886 7.14454 3.19499 7.22385 3.59007C7.24775 3.71146 7.24966 3.83284 7.23532 3.94407C7.22624 3.94696 7.21717 3.95084 7.2076 3.95471C7.16938 3.9697 7.12829 3.98856 7.08291 4.01226C7.09007 3.98662 7.09533 3.95906 7.09867 3.93005C7.12447 3.70905 7.02127 3.48031 6.8679 3.41986C6.71453 3.35941 6.56928 3.48998 6.54348 3.71098C6.51864 3.92328 6.61276 4.14235 6.75562 4.21295C6.73745 4.22552 6.71882 4.23858 6.70019 4.25212C6.6763 4.26856 6.65242 4.28645 6.629 4.30482C6.51576 4.19407 6.4398 4.01563 6.3968 3.828C6.31892 3.48755 6.403 3.1118 6.62374 3.03395V3.03395V3.03395V3.03395H6.62375Z" fill="#F5F5F5"/>
<path fill-rule="evenodd" clip-rule="evenodd" d="M6.51814 5.0591C6.52365 5.065 6.5216 5.07544 6.52773 5.08162C6.59982 5.1543 6.6832 5.22553 6.75589 5.30888C6.83947 5.40472 6.91608 5.51192 6.98722 5.57761C7.11802 5.69839 7.2423 5.76294 7.42384 5.78562C7.77445 5.82942 8.0366 5.73102 8.33227 5.53365C8.47139 5.44074 8.66404 5.26946 8.77543 5.18478C8.96091 5.04349 9.01397 5.05462 9.06895 4.9835C9.12584 4.90948 9.15356 4.71593 9.13683 4.62448C9.12345 4.55384 9.09907 4.50691 9.02353 4.45852C8.93939 4.40481 8.79455 4.3482 8.54356 4.26208L8.54306 4.2616H8.54258L8.54208 4.26112H8.54112L8.54062 4.26064H8.54012H8.53962L8.53866 4.26016H8.53816L8.53766 4.25968H8.5367V4.25968L8.5362 4.2592H8.5357H8.5352L8.53426 4.25872H8.53376L8.53326 4.25824H8.53231L8.5318 4.25776H8.5313L8.5308 4.25728H8.52987V4.25728H8.52937L8.52886 4.2568H8.52836L8.52743 4.25632H8.52693L8.52643 4.25584H8.52592H8.52499L8.52449 4.25536H8.52401L8.52305 4.25488V4.25488H8.52255L8.52205 4.2544H8.52155L8.52059 4.25392H8.52009H8.51959L8.51909 4.25344H8.51813L8.51763 4.25296H8.51713L8.51663 4.25248H8.51613H8.51562H8.51512L8.51462 4.252H8.51412L8.51317 4.25152H8.51266L8.51216 4.25105H8.51166H8.51073L8.51023 4.25056H8.50972L8.50922 4.25009H8.50872H8.50822L8.50772 4.24961H8.50722H8.50672L8.50576 4.24913H8.50526L8.50476 4.24865H8.50426L8.50187 4.24768L8.49566 4.24526H8.49472L8.49041 4.24381L8.48899 4.24333L8.48564 4.24188L8.48229 4.24091L8.48133 4.24043L8.47656 4.23898L8.4756 4.23851L8.46939 4.23609L8.46797 4.23561L8.46319 4.23416L8.46268 4.23368L8.45647 4.23175L8.45456 4.23078L8.44977 4.22933V4.22933L8.44357 4.22692L8.43736 4.22449H8.43686L8.43255 4.22305L8.43066 4.22257L8.42779 4.22112L8.42443 4.22015L8.42348 4.21967L8.41917 4.21822L8.41821 4.21774L8.412 4.21532L8.41058 4.21485L8.40628 4.21339H8.40578L8.40243 4.21195L8.39957 4.21098L8.39815 4.2105L8.39384 4.20857V4.20857L8.38763 4.20663L8.38524 4.20566L8.38142 4.20421H8.38092L8.37709 4.20227L8.37568 4.2018L8.36946 4.19985L8.3685 4.19937L8.36467 4.19793L8.36374 4.19744L8.36039 4.19647L8.35751 4.19551L8.35656 4.19503L8.35225 4.19309H8.35175L8.3484 4.19164L8.34601 4.19067L8.34412 4.19019L8.34029 4.18874H8.33979L8.33405 4.18632L8.32832 4.18438L8.32782 4.1839L8.324 4.18245L8.32256 4.18198L8.32017 4.18101L8.31683 4.18004L8.31633 4.17955L8.31203 4.17811L8.31107 4.17763L8.30821 4.17666L8.30533 4.17569L8.30439 4.17521L8.30057 4.17376L8.29963 4.17328L8.29677 4.17231L8.29438 4.17134L8.29246 4.17086L8.28864 4.16893V4.16893L8.28481 4.16747L8.2829 4.16699L8.27763 4.16458H8.27713L8.27331 4.16313L8.27188 4.16265L8.26949 4.16168L8.26662 4.16071L8.26612 4.16023L8.2623 4.15878L8.26088 4.1583L8.25561 4.15636L8.25466 4.15588L8.25084 4.15443H8.25034L8.247 4.15298L8.24508 4.15201L8.24367 4.15153L8.23985 4.15008H8.23935L8.23839 4.1496L8.23744 4.14912L8.236 4.14865L8.23506 4.14817H8.23411V4.14769H8.23267L8.23171 4.14721L8.2303 4.14673L8.22934 4.14625L8.22884 4.14577L8.22692 4.14529L8.22597 4.14481L8.22455 4.14433L8.22359 4.14385V4.14385L8.22216 4.14337L8.2212 4.14289L8.22026 4.14241L8.21883 4.14193H8.21833L8.21783 4.14145H8.21641L8.21545 4.14098L8.2145 4.14049L8.21306 4.14002V4.14002L8.21212 4.13954L8.21069 4.13906L8.20973 4.13858L8.20782 4.1381L8.20732 4.13763L8.20636 4.13714L8.20492 4.13666L8.20396 4.13618L8.20301 4.13571H8.20253H8.20157L8.20061 4.13522L8.19965 4.13474L8.19822 4.13426L8.19772 4.13379H8.19722L8.19626 4.13331L8.19482 4.13283L8.19389 4.13235L8.19247 4.13187V4.13187L8.19151 4.13139L8.19056 4.13091H8.18914L8.18818 4.13043L8.18723 4.12995V4.12995L8.18579 4.12947L8.18483 4.12899L8.18388 4.12852L8.18244 4.12804V4.12804L8.18148 4.12756L8.18053 4.12708L8.17909 4.12659L8.17813 4.12611H8.1772V4.12611L8.17576 4.12564L8.1748 4.12516L8.17384 4.12468L8.17289 4.1242H8.17239L8.17145 4.12372L8.17049 4.12324L8.16953 4.12277L8.16812 4.12228H8.16716C7.91236 4.02213 7.74696 3.95729 7.51463 3.96503C7.43384 3.96744 7.35161 3.97664 7.23592 4.02309L7.23018 4.02551V4.02551L7.22444 4.02744V4.02792L7.21967 4.02986H7.21871V4.03033H7.21821L7.21294 4.03228V4.03275L7.20864 4.0342L7.20577 4.03565L7.20243 4.0371L7.20147 4.03758H7.20097L7.1962 4.03952L7.19524 4.04L7.19476 4.04047V4.04047L7.1895 4.04289V4.04289H7.189L7.18422 4.04531H7.18328L7.18278 4.04579L7.17943 4.04724L7.17847 4.04772L7.17656 4.04869L7.17178 4.05111H7.17128L7.17032 4.05159L7.16697 4.05304L7.16508 4.05401L7.16414 4.05449L7.16079 4.05593L7.15983 4.05641L7.15792 4.05738V4.05738L7.15457 4.05883L7.15265 4.05981L7.15122 4.06077L7.14788 4.06222H7.14737L7.14498 4.06367L7.14163 4.06512L7.13828 4.06705L7.13494 4.0685V4.0685L7.13159 4.07043L7.12825 4.07187L7.12775 4.07236L7.12536 4.07332L7.12485 4.07381L7.1215 4.07525V4.07525L7.11816 4.07719L7.11481 4.07864L7.11195 4.08058H7.11145L7.1081 4.08252H7.1076L7.10521 4.08397H7.10471L7.10088 4.08591L7.09802 4.08785H7.09752L7.09418 4.08979L7.09083 4.09173L7.087 4.09365L7.08365 4.09511V4.09558L7.07983 4.09752V4.09752L7.07649 4.09897V4.09945L7.07266 4.10139L7.0698 4.10284L7.0693 4.10332L7.06548 4.10525L7.06214 4.10719V4.10719L7.05831 4.10912L7.05449 4.11154V4.11154C7.04732 4.11541 7.03967 4.11977 7.03202 4.12413L7.0282 4.12654L7.02438 4.12849V4.12849L7.02199 4.12994L7.01768 4.13284L7.01529 4.13429H7.01479L7.01429 4.13477L7.01047 4.13671L7.00808 4.13816L7.00617 4.13961L7.00138 4.14251L6.999 4.14395L6.99422 4.14637L6.99182 4.14782L6.98466 4.15218L6.98227 4.15363L6.97749 4.15653L6.9751 4.15847L6.96984 4.16136L6.96745 4.16281L6.96123 4.16668L6.96073 4.16716H6.96023L6.95784 4.16861L6.95259 4.17199L6.9502 4.17345L6.94542 4.17634V4.17634L6.94492 4.17683H6.94442V4.1773H6.94392L6.94342 4.17778H6.94292V4.17827H6.94242L6.94191 4.17874L6.94096 4.17922H6.94046L6.93807 4.18115H6.93757L6.93706 4.18162V4.18162L6.93656 4.1821H6.93606H6.93556V4.18259H6.93506L6.93456 4.18306H6.93406V4.18354H6.93356L6.92783 4.18741H6.92733L6.92683 4.18789L6.92444 4.18934L6.91917 4.19273L6.91678 4.19418L6.91628 4.19466L6.9115 4.19756L6.90863 4.1995L6.90623 4.20095L6.90336 4.20289L6.90097 4.20433L6.89811 4.20627L6.89284 4.20966L6.88998 4.2116L6.88471 4.21499L6.88233 4.21693L6.87946 4.21837L6.8766 4.22031L6.87421 4.22225L6.87134 4.22369L6.86848 4.22562L6.86562 4.22756L6.86323 4.2295L6.86132 4.23047L6.85797 4.23289L6.85606 4.23386L6.85416 4.23531L6.85225 4.23628L6.85081 4.23772L6.8489 4.23869L6.84698 4.24014L6.84507 4.24111L6.84363 4.24256L6.83981 4.24498L6.83792 4.24595L6.8365 4.24739L6.83459 4.24837L6.83267 4.24981H6.83217L6.83074 4.25078L6.82882 4.25223L6.82741 4.2532L6.82549 4.25465L6.82358 4.2561L6.82166 4.25707L6.81975 4.25852L6.81783 4.25949L6.81592 4.26093L6.81448 4.26239L6.81307 4.26286L6.81257 4.26334L6.81065 4.26479L6.80683 4.26721L6.80491 4.26866L6.803 4.26963L6.80109 4.27108L6.79917 4.27253L6.79728 4.27349L6.79536 4.27495L6.79201 4.27784L6.7901 4.27881L6.78818 4.28026L6.78627 4.28171L6.78435 4.28268L6.78385 4.28316L6.78242 4.28413L6.7805 4.28558L6.77859 4.28703L6.77667 4.288L6.77476 4.28944L6.7738 4.28993L6.77284 4.29089L6.77093 4.29234L6.76854 4.29379L6.7652 4.29621H6.76469L6.76376 4.29718L6.7628 4.29766L6.76089 4.29911L6.75897 4.30056L6.75515 4.30297L6.75371 4.30443H6.75323L6.75134 4.30587L6.74321 4.31168C6.62465 4.39539 6.50322 4.50667 6.43295 4.62087C6.3913 4.68845 6.32537 4.82786 6.38687 4.90803C6.38708 4.90824 6.54395 4.98959 6.70146 5.08387C6.9561 5.23627 7.24698 5.31499 7.50668 5.30035C7.71324 5.2887 7.94379 5.22267 8.11028 5.14157C8.27783 5.05994 8.48387 4.9312 8.68468 4.77436C8.71576 4.75113 8.77496 4.6923 8.81197 4.67455C8.8446 4.6589 8.9498 4.66797 8.94497 4.70413C8.94119 4.73245 8.81764 4.78299 8.77311 4.81646C8.55344 4.9816 8.30887 5.14335 8.1499 5.2175C7.98567 5.29412 7.70926 5.38258 7.52244 5.39373C7.35177 5.40393 7.20684 5.38476 7.05847 5.33399C6.91503 5.28489 6.83 5.24226 6.67727 5.15298C6.62856 5.12451 6.58173 5.10074 6.51581 5.05908L6.51814 5.0591Z" fill="#FCC624"/>
<path fill-rule="evenodd" clip-rule="evenodd" d="M12.1297 10.6471C12.1381 10.6311 12.1551 10.5672 12.1564 10.5542C12.1885 10.2305 11.5663 10.1577 11.082 10.174C10.8623 10.1814 10.691 10.2077 10.5887 10.2382C10.4106 10.2915 10.3228 10.4136 10.3031 10.5664C10.2631 10.8757 10.3538 11.5292 10.657 11.6722C10.9706 11.82 11.4455 11.609 11.7258 11.2907C11.9157 11.0751 12.0365 10.8242 12.1297 10.6471Z" fill="#191919"/>
</svg>

<svg width="16" height="16" viewBox="0 0 16 16" fill="none" xmlns="http://www.w3.org/2000/svg"><rect id="frame" width="16" height="16" fill="none"/><path fill-rule="evenodd" clip-rule="evenodd" d="M6.39 1.935a2.17 2.17 0 0 0-.216.941c-.03 1.611.07 1.362.008 2.101-.029.34-.066.466-.237.876-.186.446-.385.7-.662 1.091-.343.485-.816 1.149-1.075 1.681a4.209 4.209 0 0 0-.318 1.069c-.03.204-.034.468-.027.715-.183.161-.276.431-.464.637-.12.133-.354.176-.614.227-.222.043-.457.13-.54.264a.49.49 0 0 0-.024.047c-.188.365.042.99-.07 1.454-.048.197-.128.382-.13.552 0 .088.02.18.08.286.066.116.21.199.416.271.193.067.442.126.732.195l.1.024c.131.032.261.063.393.09.085.018.135.026.178.034.185.033.255.046.748.242.12.046.251.097.39.14.277.086.588.15.876.097a.906.906 0 0 0 .406-.18 1.547 1.547 0 0 0 .398-.485.9.9 0 0 0 .072-.197c.116-.059.403-.147 1.087-.154 1.03-.01 1.717.366 1.717.366v-.008c.01.05.02.096.033.14a.755.755 0 0 0 .218.343c.061.057.135.11.22.155.077.042.165.077.262.102.088.024.183.039.284.044.094.005.193 0 .295-.015a1.06 1.06 0 0 0 .423-.152 2.03 2.03 0 0 0 .298-.241l.003-.002c.061-.057.124-.115.193-.167a10.45 10.45 0 0 0 .258-.201c.101-.081.206-.165.312-.245.109-.081.224-.164.35-.246a40.549 40.549 0 0 0 .627-.417c.187-.129.445-.288.543-.495a.393.393 0 0 0 .045-.207c-.015-.236-.292-.45-.537-.662-.119-.103-.239-.206-.301-.31a1.083 1.083 0 0 1-.13-.306c-.048-.258-.047-.45-.167-.62a.458.458 0 0 0-.378-.22 1.5 1.5 0 0 1-.073-.011c.11-.413.148-.676.115-1.02-.113-1.208-.877-2.092-1.292-2.691-.271-.39-.586-.793-.721-1.06-.136-.269-.237-.641-.303-.857-.065-.213-.1-.718-.108-1.539.03-1.256-.354-1.836-.819-2.198C8.799.85 8.116.857 7.87.878c-.206.019-1.075.23-1.48 1.057z" fill="#191919"/><path fill-rule="evenodd" clip-rule="evenodd" d="M3.296 11.28c-.244.119-.808.117-.944.353-.15.261-.053.55-.052.882 0 .236-.003.498-.101.777-.08.23-.108.31.007.513.116.203.615.3 1.291.463.677.163.461.043 1.218.342.47.186 1.132.414 1.56.075.159-.126.418-.409.434-.685a1.195 1.195 0 0 0-.042-.428c-.124-.34-.372-.486-.607-.842-.43-.66-.887-1.288-1.253-1.838-.258-.39-.465-.483-.64-.452-.54.096-.365.594-.87.84z" fill="#FCC624"/><path fill-rule="evenodd" clip-rule="evenodd" d="M10.15 10.717c-.237.17-.185.679-.2.947-.02.41-.023.867-.037 1.049-.023.3-.249.98-.221 1.302.027.32.05.508.247.692.197.183.545.32.974.258.429-.063.591-.333.87-.544.277-.211.563-.461.93-.7.367-.239.958-.63 1.043-.735.085-.106.143-.197.082-.337-.062-.139-.276-.354-.51-.55-.61-.51-.347-.985-.601-1.235-.078-.085-.136-.132-.226-.15-.487-.1-.621.093-.907.064-.308-.03-.192.038-.825-.047-.218-.025-.468-.113-.618-.014z" fill="#FCC624"/><path fill-rule="evenodd" clip-rule="evenodd" d="M6.171 6.821c-.217.482-.206.318-.353.821-.203.187-.425.688-.572 1.12-.187.626-.328 1.27-.153 2.02.07.076.126.148.189.209.1.096.208.174.34.275.467.36.794.55.859.783.085.31-.107.516-.346.643.175.177.734.54 1.753.495.898-.04 1.461-.384 1.942-.977.003-.137.018-.366.025-.612.006-.236.007-.472.043-.655a.67.67 0 0 1 .039-.12.429.429 0 0 1 .367-.253c.08-.003.163-.01.243.008.121-.964.025-1.63-.456-2.65-.037-.071-.216-.375-.322-.46-.083-.412-.094-.392-.26-.77-.253-.57-.344-1.232-.421-1.62-.053.028-.145.066-.285.176-.101.08-.29.247-.434.348a1.773 1.773 0 0 1-.299.168 1.131 1.131 0 0 1-.396.106c-.385.02-.568-.076-.743-.261-.074-.078-.13-.163-.223-.267a1.068 1.068 0 0 0-.156-.149c-.001.051-.163 1.14-.38 1.622zM7.9 3.945a1.41 1.41 0 0 1 .059-.55c.113-.38.524-.634.872-.455.348.18.412.644.329.905-.051.161-.173.35-.265.468a5.212 5.212 0 0 0-.268-.1.435.435 0 0 0 .16-.172c.116-.213.075-.489-.09-.617-.165-.129-.392-.06-.507.152a.543.543 0 0 0-.024.465 3.841 3.841 0 0 0-.266-.096zm-1.275-.911c.326-.115.52.161.6.556.024.121.026.243.011.354l-.027.01c-.039.016-.08.035-.125.058a.533.533 0 0 0 .016-.082c.025-.221-.078-.45-.231-.51-.153-.06-.299.07-.325.291-.024.212.07.431.213.502a2.915 2.915 0 0 0-.127.092c-.113-.11-.19-.29-.232-.477-.078-.34.006-.716.227-.794z" fill="#F5F5F5"/><path fill-rule="evenodd" clip-rule="evenodd" d="M6.518 5.06c.006.005.004.015.01.022.072.072.155.144.228.227.083.096.16.203.231.269.131.12.255.185.437.208.35.043.613-.055.908-.252.14-.093.332-.265.443-.35.186-.14.239-.13.294-.2.057-.075.085-.268.068-.36a.222.222 0 0 0-.113-.165c-.085-.054-.23-.11-.48-.197H8.54V4.26h-.002l-.001-.001h-.002l-.002-.001h-.002v-.001H8.53l-.001-.001h-.002v-.001h-.003v-.001h-.002l-.001-.001h-.003v-.001h-.002l-.001-.001H8.51V4.25h-.002l-.001-.001h-.002l-.001-.001-.003-.001-.006-.003h-.001l-.005-.001H8.49l-.003-.002-.004-.001-.005-.002h-.001l-.007-.003h-.001l-.005-.002-.007-.002-.001-.001-.005-.002-.006-.002-.007-.003-.004-.001H8.43l-.003-.002h-.004V4.22l-.005-.002-.007-.003h-.001l-.005-.002-.004-.001L8.4 4.21h-.002l-.004-.002-.006-.002-.003-.001-.004-.002-.004-.002h-.001L8.369 4.2l-.004-.002h-.001l-.004-.002h-.002l-.001-.001-.005-.002-.004-.001-.002-.001h-.002l-.004-.002-.006-.003-.006-.002-.004-.002h-.001l-.003-.001-.003-.001-.005-.002-.004-.001-.003-.001-.004-.002H8.3l-.003-.002h-.003l-.002-.001-.003-.002-.004-.002h-.002l-.005-.002-.005-.002h-.001l-.003-.001-.002-.001-.005-.002h-.001l-.005-.003h-.001l-.004-.002-.004-.001-.002-.001h-.001L8.24 4.15h-.002l-.002-.001h-.002v-.001h-.002l-.002-.001-.001-.001h-.002l-.001-.001h-.001l-.001-.001h-.002v-.001H8.22l-.001-.001h-.003V4.14h-.002V4.14H8.21l-.001-.001h-.002v-.001h-.002l-.001-.001h-.001l-.001-.001H8.2L8.2 4.134h-.002v-.001h-.002l-.001-.001h-.001l-.002-.001-.001-.001h-.002l-.002-.001h-.001l-.001-.001h-.001l-.002-.001H8.18l-.002-.001h-.002l-.001-.001h-.001l-.001-.001h-.001l-.002-.001-.001-.001h-.002c-.256-.1-.421-.166-.653-.158a.748.748 0 0 0-.28.058l-.005.003-.006.001-.004.003h-.001l-.006.002-.004.002-.003.002-.004.001H7.2l-.005.003h-.001l-.006.003-.005.002h-.001l-.004.002-.002.002-.005.002H7.17l-.003.002-.002.001-.004.002H7.16l-.002.001-.003.002h-.002l-.002.002-.003.001-.003.002-.003.001-.004.002-.003.002-.003.001-.004.002-.003.001-.003.002-.004.002-.003.002-.003.002-.004.002-.003.001-.004.002-.003.002-.004.002-.003.002-.004.002-.003.001-.004.003-.004.001-.003.002-.003.002-.005.002-.003.002-.004.002-.004.003-.022.012-.004.003-.004.001-.002.002-.004.003-.003.001-.005.003-.002.001-.002.002-.005.003L7 4.144l-.005.002-.002.002-.007.004-.003.002-.005.003-.002.001-.005.003-.003.002-.006.004-.003.002-.005.003-.003.001-.005.003v.001h-.002v.001h-.001l-.001.001-.003.002-.001.001h-.001l-.001.001h-.001l-.006.004h-.001l-.003.002-.005.004-.002.001-.005.004-.003.001-.003.002-.003.002-.002.001-.003.002-.005.004-.003.002-.005.003-.003.002-.003.001-.002.002-.003.002-.003.002-.003.002-.002.002-.003.002h-.002l-.003.003h-.002l-.002.002-.002.001-.001.002h-.002l-.002.002-.002.001-.001.002-.004.002h-.002l-.002.002-.001.001-.002.002H6.83l-.002.002-.002.001-.002.002-.001.001-.002.001-.002.002h-.002l-.002.002-.002.001-.001.001-.002.002-.004.002-.002.002h-.002l-.002.002-.002.002h-.002l-.002.002-.003.003H6.79l-.002.002-.002.002h-.002v.001l-.002.001-.002.002-.001.001-.002.001-.002.001h-.001l-.001.002-.002.001-.002.002-.004.002-.001.001h-.001L6.76 4.3l-.002.002-.004.002-.001.001-.003.002-.008.006c-.118.083-.24.195-.31.309-.042.067-.108.207-.046.287 0 0 .157.082.314.176.255.152.546.231.806.216.206-.011.437-.077.603-.158.168-.082.374-.21.575-.368.03-.023.09-.082.127-.1.033-.015.138-.006.133.03-.004.028-.127.079-.172.112-.22.166-.464.327-.623.402a2.06 2.06 0 0 1-.628.176c-.17.01-.315-.01-.464-.06a1.84 1.84 0 0 1-.38-.181c-.05-.028-.096-.052-.162-.094h.002z" fill="#FCC624"/><path fill-rule="evenodd" clip-rule="evenodd" d="M12.13 10.647a.52.52 0 0 0 .026-.093c.032-.324-.59-.396-1.074-.38-.22.007-.391.034-.493.064a.375.375 0 0 0-.286.328c-.04.31.05.963.354 1.106.314.148.788-.063 1.069-.381.19-.216.31-.467.404-.644z" fill="#191919"/></svg>
